X:286
T: Rogue (The)
N: O'Farrell's Pocket Companion v.3 (Sky ed. p.130)
N: "Irish"
M: 9/8
L: 1/8
R: slip jig
Q: 280
K: D
A |: FEF A2B AFD| E2e efd cBA| FEF A2B AFD| e2d dAG FED :|
dfd cec B3| Bcd efd cBA| dfd cec B3| ABc dAG FED|
dfd cec B3| Bcd efd cBA| fdB ecA B3| ABc dAG FED||
